assets/02_eyes/Eye 15.svg

<svg width="400" height="180" viewBox="0 0 400 180" fill="none" xmlns="http://www.w3.org/2000/svg">
<g clip-path="url(#clip0_70_922)">
<path d="M97.1902 144.391C70.5792 102.417 83.0373 46.8011 125.012 20.19C166.986 -6.42103 222.602 6.03706 249.213 48.0113L97.1902 144.391Z" fill="white"/>
<path d="M125.011 20.19C104.021 33.4973 97.7934 61.3007 111.101 82.2907C124.408 103.281 152.211 109.509 173.201 96.2014C194.191 82.8941 200.419 55.0906 187.112 34.1007C173.805 13.1107 146.001 6.88271 125.011 20.19Z" fill="#010101"/>
<path d="M303.367 36.3763C329.666 78.5472 316.794 134.069 274.623 160.367C232.453 186.666 176.931 173.795 150.632 131.624L303.367 36.3763Z" fill="white"/>
<path d="M274.623 160.367C295.712 147.217 302.146 119.46 288.995 98.3719C275.844 77.2836 248.088 70.8491 227 84C205.911 97.1509 199.477 124.907 212.628 145.996C225.779 167.084 253.535 173.518 274.623 160.367Z" fill="#010101"/>
<path d="M230.746 129.209L228.574 127.645L229.005 127.376L229.002 127.453C229.053 128.094 228.988 128.709 228.805 129.297C228.623 129.884 228.306 130.456 227.873 131.001C227.439 131.546 226.866 132.027 226.184 132.453C225.088 133.136 224.025 133.351 222.946 133.1C221.885 132.839 220.889 131.963 219.96 130.472L213.665 120.379C212.735 118.888 212.405 117.598 212.673 116.507C212.941 115.417 213.637 114.534 214.751 113.84C215.649 113.28 216.58 112.973 217.516 112.913C218.452 112.854 219.183 112.947 219.67 113.167L219.779 113.223L219.348 113.492L215.26 106.936L219.571 104.248L233.907 127.238L230.746 129.209ZM218.498 116.168C217.797 116.605 217.74 117.313 218.356 118.301L223.8 127.03C224.158 127.605 224.542 127.939 224.95 128.034C225.358 128.129 225.814 128.019 226.298 127.717C226.765 127.426 227.017 127.069 227.071 126.636C227.126 126.203 227.009 125.777 226.729 125.328L220.883 115.952C220.017 115.644 219.234 115.709 218.498 116.168ZM221.616 104.968L222.871 106.98L215.309 111.695L214.055 109.684L221.616 104.968Z" fill="white"/>
<path d="M247.701 118.636L243.39 121.324L242.17 119.366L242.601 119.097C242.631 119.627 242.579 120.183 242.397 120.771C242.233 121.347 241.916 121.919 241.493 122.482C241.071 123.045 240.51 123.544 239.809 123.981C238.732 124.653 237.704 124.845 236.69 124.579C235.676 124.314 234.705 123.397 233.765 121.889L225.017 107.862L229.328 105.173L237.694 118.59C238.299 119.56 239.008 119.816 239.798 119.323C240.05 119.167 240.252 118.891 240.411 118.467C240.571 118.043 240.679 117.576 240.736 117.067L232.201 103.381L236.512 100.693L247.712 118.654L247.701 118.636ZM232.251 96.5406L233.505 98.5521L225.654 106.242L224.399 104.231L232.251 96.5406Z" fill="white"/>
<path d="M238.225 99.6001L242.535 96.9121L243.846 99.0134L243.414 99.2822L243.455 98.9076C243.568 98.0888 243.859 97.2342 244.351 96.3036C244.843 95.373 245.535 94.6422 246.415 94.0934C247.475 93.4326 248.449 93.2743 249.373 93.596C250.297 93.9178 251.22 94.8386 252.183 96.3832L260.931 110.41L256.62 113.098L248.254 99.6819C247.649 98.7121 246.976 98.4332 246.276 98.87C245.575 99.3068 245.137 100.004 245.033 100.917L253.747 114.89L249.436 117.578L238.236 99.6181L238.225 99.6001Z" fill="white"/>
<path d="M253.557 91.7851C253.805 90.1834 254.946 88.7733 257.012 87.4852L263.28 83.5763L265.072 86.45L261.103 88.9253L260.834 88.4942C261.86 88.1789 262.883 88.1395 263.874 88.3694C264.877 88.6172 265.832 89.4685 266.739 90.9233L266.974 91.3004C267.669 92.414 268.094 93.4958 268.261 94.564C268.428 95.6321 268.268 96.6551 267.755 97.6732C267.261 98.6801 266.358 99.5923 265.047 100.41L263.987 101.071C263.538 101.351 263.26 101.624 263.152 101.891C263.044 102.158 263.064 102.47 263.265 102.793C263.668 103.44 264.301 103.494 265.163 102.957L266.995 101.814C268.971 100.582 270.62 100.027 271.962 100.139C273.304 100.25 274.469 101.119 275.466 102.718C276.597 104.532 276.937 106.116 276.467 107.482C275.996 108.848 274.902 110.054 273.196 111.118L271.095 112.428C269.46 113.448 267.977 113.949 266.62 113.972C265.262 113.995 264.217 113.4 263.467 112.196C263.03 111.496 262.775 110.807 262.695 110.158C262.615 109.51 262.727 108.891 263.033 108.301C263.328 107.693 263.808 107.144 264.442 106.6L264.71 107.031C263.68 107.499 262.767 107.594 262.018 107.313C261.251 107.043 260.627 106.484 260.101 105.639C259.619 104.867 259.403 104.079 259.457 103.247C259.512 102.415 259.988 101.619 260.88 100.888L261.149 101.319C260.118 101.787 259.118 101.663 258.199 100.989C257.268 100.297 256.461 99.403 255.767 98.2894L254.815 96.7628C253.74 95.0386 253.326 93.3756 253.568 91.8031L253.557 91.7851ZM267.163 109.443C267.512 109.524 267.903 109.43 268.334 109.161L271.782 107.011C272.195 106.753 272.452 106.444 272.551 106.083C272.632 105.733 272.56 105.378 272.336 105.019C272.101 104.642 271.814 104.422 271.487 104.376C271.159 104.331 270.78 104.443 270.349 104.712L266.9 106.862C266.451 107.142 266.184 107.434 266.098 107.737C265.995 108.051 266.066 108.405 266.302 108.782C266.537 109.159 266.813 109.362 267.163 109.443ZM261.545 97.1554C261.913 97.2253 262.286 97.1427 262.645 96.9187C263.004 96.6947 263.278 96.3741 263.395 96.0018C263.512 95.6294 263.437 95.2278 263.168 94.7967L261.196 91.6357C260.939 91.2226 260.612 90.9777 260.214 90.901C259.829 90.8423 259.438 90.9362 259.061 91.1714C258.684 91.4066 258.464 91.6935 258.365 92.0547C258.265 92.4158 258.341 92.8175 258.61 93.2485L260.581 96.4096C260.839 96.8226 261.166 97.0675 261.545 97.1554Z" fill="white"/>
<path d="M245.027 160.19C245.027 160.19 245.016 160.172 245.005 160.154L230.702 137.219L235.013 134.531L249.349 157.52L245.092 160.174L245.056 160.197L245.027 160.19ZM247.12 153.946L249.338 157.502L248.763 157.86L246.545 154.304L247.12 153.946Z" fill="white"/>
<path d="M241.843 139.002C242.091 137.4 243.25 135.979 245.298 134.702C247.345 133.425 249.143 133.028 250.679 133.492C252.227 133.973 253.509 135.069 254.584 136.794L259.042 143.942C260.117 145.666 260.531 147.329 260.289 148.902C260.041 150.503 258.899 151.913 256.834 153.201C254.768 154.49 252.989 154.876 251.452 154.412C249.905 153.93 248.623 152.834 247.547 151.11L243.09 143.962C242.014 142.238 241.601 140.575 241.843 139.002ZM253.348 150.012C253.734 150.071 254.143 149.966 254.592 149.686C255.041 149.406 255.315 149.085 255.45 148.702C255.585 148.318 255.509 147.916 255.24 147.485L249.752 138.685C249.494 138.272 249.149 138.038 248.752 137.961C248.348 137.914 247.922 138.03 247.491 138.299C247.059 138.568 246.767 138.899 246.65 139.272C246.533 139.644 246.609 140.046 246.878 140.477L252.366 149.277C252.624 149.69 252.951 149.935 253.348 150.012Z" fill="white"/>
<path d="M254.774 130.938C255.022 129.336 256.181 127.915 258.229 126.638C260.276 125.361 262.074 124.964 263.61 125.427C265.158 125.909 266.44 127.005 267.515 128.729L271.973 135.878C273.048 137.602 273.462 139.265 273.22 140.837C272.972 142.439 271.831 143.849 269.765 145.137C267.7 146.425 265.92 146.812 264.384 146.348C262.836 145.866 261.554 144.77 260.478 143.046L256.021 135.898C254.946 134.173 254.532 132.511 254.774 130.938ZM266.279 141.948C266.665 142.007 267.074 141.901 267.523 141.621C267.972 141.341 268.246 141.021 268.381 140.637C268.516 140.254 268.44 139.852 268.171 139.421L262.683 130.621C262.425 130.207 262.08 129.974 261.683 129.897C261.279 129.85 260.853 129.966 260.422 130.235C259.991 130.503 259.699 130.835 259.582 131.208C259.465 131.58 259.54 131.982 259.809 132.413L265.297 141.213C265.555 141.626 265.882 141.871 266.279 141.948Z" fill="white"/>
<path d="M262.6 117.327L266.911 114.639L274.101 126.169L273.67 126.438L273.244 117.674L277.267 115.165L278.339 122.404C278.443 123.212 278.476 123.865 278.397 124.338C278.33 124.83 278.087 125.28 277.673 125.738C277.26 126.195 276.587 126.715 275.653 127.297L275.384 126.866C276.318 126.284 277.081 125.908 277.656 125.749C278.23 125.59 278.753 125.588 279.195 125.737C279.637 125.885 280.19 126.214 280.867 126.739L288.97 132.812L284.372 135.679L275.491 129.319L275.922 129.05L281.265 137.617L276.954 140.305L262.618 117.316L262.6 117.327Z" fill="white"/>
</g>
<defs>
<clipPath id="clip0_70_922">
<rect width="400" height="180" fill="white"/>
</clipPath>
</defs>
</svg>

<svg xmlns="http://www.w3.org/2000/svg" width="400" height="180" fill="none" viewBox="0 0 400 180"><g clip-path="url(#Eye_15_svg_clip0_70_922)"><path fill="#fff" d="M97.19 144.391c-26.61-41.974-14.153-97.59 27.822-124.201 41.974-26.611 97.59-14.153 124.201 27.821z"/><path fill="#010101" d="M125.011 20.19c-20.99 13.307-27.218 41.11-13.91 62.1s41.11 27.219 62.1 13.911c20.99-13.307 27.218-41.11 13.911-62.1S146.001 6.883 125.011 20.19"/><path fill="#fff" d="M303.367 36.376c26.299 42.171 13.427 97.693-28.744 123.991s-97.692 13.428-123.991-28.743z"/><path fill="#010101" d="M274.623 160.367c21.089-13.15 27.523-40.907 14.372-61.995S248.088 70.849 227 84s-27.523 40.907-14.372 61.996c13.151 21.088 40.907 27.522 61.995 14.371"/><path fill="#fff" d="m230.746 129.209-2.172-1.564.431-.269-.003.077a4.9 4.9 0 0 1-.197 1.844c-.182.587-.499 1.159-.932 1.704s-1.007 1.026-1.689 1.452c-1.096.683-2.159.898-3.238.647q-1.592-.391-2.986-2.628l-6.295-10.093q-1.394-2.236-.992-3.872c.268-1.09.964-1.973 2.078-2.667.898-.56 1.829-.867 2.765-.927.936-.059 1.667.034 2.154.254l.109.056-.431.269-4.088-6.556 4.311-2.688 14.336 22.99zm-12.248-13.041c-.701.437-.758 1.145-.142 2.133l5.444 8.729q.537.862 1.15 1.004c.408.095.864-.015 1.348-.317.467-.291.719-.648.773-1.081s-.062-.859-.342-1.308l-5.846-9.376c-.866-.308-1.649-.243-2.385.216m3.118-11.2 1.255 2.012-7.562 4.715-1.254-2.011z"/><path fill="#fff" d="m247.701 118.636-4.311 2.688-1.22-1.958.431-.269c.03.53-.022 1.086-.204 1.674-.164.576-.481 1.148-.904 1.711q-.633.844-1.684 1.499c-1.077.672-2.105.864-3.119.598-1.014-.265-1.985-1.182-2.925-2.69l-8.748-14.027 4.311-2.689 8.366 13.417c.605.97 1.314 1.226 2.104.733.252-.156.454-.432.613-.856q.24-.636.325-1.4l-8.535-13.686 4.311-2.688 11.2 17.961zm-15.45-22.095 1.254 2.011-7.851 7.69-1.255-2.011z"/><path fill="#fff" d="m238.225 99.6 4.31-2.688 1.311 2.101-.432.27.041-.375c.113-.82.404-1.674.896-2.604a5.7 5.7 0 0 1 2.064-2.21c1.06-.661 2.034-.82 2.958-.498s1.847 1.243 2.81 2.787l8.748 14.027-4.311 2.688-8.366-13.416c-.605-.97-1.278-1.249-1.978-.812-.701.437-1.139 1.134-1.243 2.047l8.714 13.973-4.311 2.688-11.2-17.96z"/><path fill="#fff" d="M253.557 91.785c.248-1.602 1.389-3.012 3.455-4.3l6.268-3.909 1.792 2.874-3.969 2.475-.269-.43a5.8 5.8 0 0 1 3.04-.126q1.505.373 2.865 2.554l.235.377c.695 1.114 1.12 2.196 1.287 3.264s.007 2.091-.506 3.11q-.741 1.509-2.708 2.736l-1.06.661q-.673.42-.835.82c-.108.267-.088.579.113.902q.605.97 1.898.164l1.832-1.143c1.976-1.232 3.625-1.787 4.967-1.675s2.507.98 3.504 2.579c1.131 1.814 1.471 3.398 1.001 4.764s-1.565 2.572-3.271 3.636l-2.101 1.31c-1.635 1.02-3.118 1.521-4.475 1.544-1.358.023-2.403-.572-3.153-1.776-.437-.7-.692-1.389-.772-2.038a3.1 3.1 0 0 1 .338-1.857c.295-.608.775-1.157 1.409-1.701l.268.431c-1.03.468-1.943.563-2.692.282-.767-.27-1.391-.829-1.917-1.674-.482-.772-.698-1.56-.644-2.392.055-.832.531-1.628 1.423-2.359l.269.431c-1.031.468-2.031.344-2.95-.33-.931-.692-1.738-1.586-2.432-2.7l-.952-1.526c-1.075-1.724-1.489-3.387-1.247-4.96zm13.606 17.658q.524.121 1.171-.282l3.448-2.15q.62-.387.769-.928.121-.525-.215-1.064c-.235-.377-.522-.597-.849-.643q-.492-.067-1.138.336l-3.449 2.15q-.673.42-.802.875c-.103.314-.032.668.204 1.045.235.377.511.58.861.661m-5.618-12.288c.368.07.741-.012 1.1-.236s.633-.545.75-.917q.176-.559-.227-1.205l-1.972-3.161q-.385-.62-.982-.735c-.385-.059-.776.035-1.153.27s-.597.522-.696.884c-.1.36-.024.762.245 1.194l1.971 3.16c.258.414.585.658.964.746"/><path fill="#fff" d="m245.027 160.19-.022-.036-14.303-22.935 4.311-2.688 14.336 22.989-4.257 2.654-.036.023zm2.093-6.244 2.218 3.556-.575.358-2.218-3.556z"/><path fill="#fff" d="M241.843 139.002c.248-1.602 1.407-3.023 3.455-4.3s3.845-1.674 5.381-1.21c1.548.481 2.83 1.577 3.905 3.302l4.458 7.148c1.075 1.724 1.489 3.387 1.247 4.96-.248 1.601-1.39 3.011-3.455 4.299s-3.845 1.675-5.382 1.211c-1.547-.482-2.829-1.578-3.905-3.302l-4.457-7.148c-1.076-1.724-1.489-3.387-1.247-4.96m11.505 11.01c.386.059.795-.046 1.244-.326s.723-.601.858-.984c.135-.384.059-.786-.21-1.217l-5.488-8.8c-.258-.413-.603-.647-1-.724-.404-.047-.83.069-1.261.338-.432.269-.724.6-.841.973q-.175.558.228 1.205l5.488 8.8q.387.62.982.735"/><path fill="#fff" d="M254.774 130.938c.248-1.602 1.407-3.023 3.455-4.3s3.845-1.674 5.381-1.211c1.548.482 2.83 1.578 3.905 3.302l4.458 7.149c1.075 1.724 1.489 3.387 1.247 4.959-.248 1.602-1.389 3.012-3.455 4.3s-3.845 1.675-5.381 1.211c-1.548-.482-2.83-1.578-3.906-3.302l-4.457-7.148c-1.075-1.725-1.489-3.387-1.247-4.96m11.505 11.01c.386.059.795-.047 1.244-.327s.723-.6.858-.984c.135-.383.059-.785-.21-1.216l-5.488-8.8c-.258-.414-.603-.647-1-.724-.404-.047-.83.069-1.261.338-.431.268-.723.6-.84.973q-.176.558.227 1.205l5.488 8.8q.387.62.982.735"/><path fill="#fff" d="m262.6 117.327 4.311-2.688 7.19 11.53-.431.269-.426-8.764 4.023-2.509 1.072 7.239c.104.808.137 1.461.058 1.934-.067.492-.31.942-.724 1.4q-.62.686-2.02 1.559l-.269-.431c.934-.582 1.697-.958 2.272-1.117s1.097-.161 1.539-.012c.442.148.995.477 1.672 1.002l8.103 6.073-4.598 2.867-8.881-6.36.431-.269 5.343 8.567-4.311 2.688-14.336-22.989z"/></g><defs><clipPath id="Eye_15_svg_clip0_70_922"><rect width="400" height="180" fill="#fff"/></clipPath></defs></svg>
